X:1
T:Everlasting Love, 77.77.77.77.77
T:James Mountain, 1876
T:Everlasting Love, 77.77.77.77.77
T:Public Domain
C:James Mountain, 1876
Z:Public Domain
%%score ( 1 2 ) ( 3 4 )
L:1/8
M:3/2
K:D
V:1 treble 
V:2 treble 
V:3 bass 
V:4 bass 
V:1
 D2 [DE]2 | [DF]6 [DF]2 [DG]2 [DG]2 | [DF]8 [DF]2 [CG]2 | [DA]6 [FA]2 [EG]2 [DF]2 | [CE]8 | %5
 D2 [DE]2 | [DF]6 [DF]2 [DG]2 [DG]2 | [DF]8 [EA]2 [EA]2 | [DA]6 [D^G]2 [DF]2 [DG]2 | %9
 [CA]8 [DA]2 [EG]2 | [DF]6 [DF]2 [DG]2 [DF]2 | [DB]8 [CB]2 [CB]2 | [DA]6 [FA]2 [EG]2 [DF]2 | %13
 [CE]8 |: [DF]2 [CG]2 | [DA]6 [DA]2 [DB]2 [Ec]2 | [Dd]8 [Dc]2 [DB]2 | [DA]6 [^DA]2 [EG]2 [CE]2 | %18
 [DF]8 :| D8 |] %20
V:2
 D2 x2 | x12 | x12 | x12 | x8 | D2 x2 | x12 | x12 | x12 | x12 | x12 | x12 | x12 | x8 |: x4 | x12 | %16
 x12 | x12 | x8 :| D8 |] %20
V:3
 [D,F,]2 [D,G,]2 | [D,A,]6 [D,A,]2 [D,B,]2 [D,_B,]2 | [D,A,]8 [D,A,]2 [E,A,]2 | %3
 [F,A,]6 [D,A,]2 [C,A,]2 [D,A,]2 | [A,,A,]8 | [D,F,]2 [D,G,]2 | [D,A,]6 [D,A,]2 [D,B,]2 [D,_B,]2 | %7
 [D,A,]8 [C,A,]2 [C,A,]2 | [B,,A,]6 [B,,B,]2 [E,A,]2 [E,B,]2 | [A,,A,]8 [B,,A,]2 [C,A,]2 | %10
 [D,A,]6 [D,A,]2 [D,B,]2 [D,A,]2 | G,8 G,2 A,2 | [F,A,]6 [D,A,]2 [C,A,]2 [D,A,]2 | [A,,A,]8 |: %14
 [D,A,]2 [E,A,]2 | [F,A,]6 [F,D]2 [G,B,]2 [G,_B,]2 | [F,A,]8 G,2 G,2 | %17
 [F,A,]6 [F,B,]2 [E,B,]2 [A,,A,]2 | [D,A,]8 :| [D,F,]8 |] %20
V:4
 x4 | x12 | x12 | x12 | x8 | x4 | x12 | x12 | x12 | x12 | x12 | G,8 A,2 G,2 | x12 | x8 |: x4 | %15
 x12 | x12 | x12 | x8 :| x8 |] %20

